lib/flags/l/SZ.svg

<svg xmlns="http://www.w3.org/2000/svg" fill="none" viewBox="0 0 32 24"><mask id="SZ_svg__a" width="32" height="24" x="0" y="0" mask-type="alpha" maskUnits="userSpaceOnUse"><path fill="#fff" d="M0 0H32V24H0z"/></mask><g mask="url(#SZ_svg__a)"><path fill="#3D58DB" fill-rule="evenodd" d="M0 0H32V24H0V0Z" clip-rule="evenodd"/><path fill="#C51918" stroke="#FFD018" stroke-width="2" d="M0 5H-1V6V18V19H0H32H33V18V6V5H32H0Z"/><path fill="#FFD018" d="M7.14932 9.33112C7.02937 9.33112 6.93213 9.05992 6.93213 8.72537C6.93213 8.39083 7.02937 8.11963 7.14932 8.11963H24.5601C24.6801 8.11963 24.7773 8.39083 24.7773 8.72537C24.7773 9.05992 24.6801 9.33112 24.5601 9.33112H7.14932Z"/><path fill="#F7FCFF" fill-rule="evenodd" d="M24.0952 8.60229L25.1063 7.3125L26.8952 8.60229L25.1063 9.926L24.0952 8.60229Z" clip-rule="evenodd"/><path fill="#FFD018" d="M7.14932 13.3311C7.02937 13.3311 6.93213 13.0599 6.93213 12.7254C6.93213 12.3908 7.02937 12.1196 7.14932 12.1196H24.5601C24.6801 12.1196 24.7773 12.3908 24.7773 12.7254C24.7773 13.0599 24.6801 13.3311 24.5601 13.3311H7.14932Z"/><path fill="#F7FCFF" fill-rule="evenodd" d="M24.0952 12.6023L25.1063 11.3125L26.8952 12.6023L25.1063 13.926L24.0952 12.6023Z" clip-rule="evenodd"/><path fill="#FFD018" d="M4.34541 15.8219C4.18458 15.8219 4.0542 15.5139 4.0542 15.1341C4.0542 14.7542 4.18458 14.4463 4.34541 14.4463H27.6896C27.8504 14.4463 27.9808 14.7542 27.9808 15.1341C27.9808 15.5139 27.8504 15.8219 27.6896 15.8219H4.34541Z"/><path fill="#F7FCFF" fill-rule="evenodd" d="M8.81738 12.0528C8.81738 12.0528 11.6587 6.07275 15.7226 6.07275C19.7866 6.07275 22.7235 12.0528 22.7235 12.0528C22.7235 12.0528 19.1373 17.9542 15.7704 17.9542C12.4035 17.9542 8.81738 12.0528 8.81738 12.0528Z" clip-rule="evenodd"/><mask id="SZ_svg__b" width="15" height="12" x="8" y="6" mask-type="alpha" maskUnits="userSpaceOnUse"><path fill="#fff" fill-rule="evenodd" d="M8.81738 12.0528C8.81738 12.0528 11.6587 6.07275 15.7226 6.07275C19.7866 6.07275 22.7235 12.0528 22.7235 12.0528C22.7235 12.0528 19.1373 17.9542 15.7704 17.9542C12.4035 17.9542 8.81738 12.0528 8.81738 12.0528Z" clip-rule="evenodd"/></mask><g fill-rule="evenodd" clip-rule="evenodd" mask="url(#SZ_svg__b)"><path fill="#272727" d="M15.9243 5.68018C15.9243 5.68018 14.997 6.80638 15.3061 7.8803C15.6152 8.95421 16.3354 8.84078 16.3354 9.78655C16.3354 10.7323 16.0027 11.6969 16.3354 11.6969C16.668 11.6969 16.7833 12.3495 16.4793 12.792C16.1752 13.2344 15.9063 13.2481 15.9243 13.9682C15.9423 14.6883 17.5163 15.3952 16.7538 15.3952C15.9913 15.3952 14.9864 16.1353 15.3061 16.1353C15.6259 16.1353 17.2987 16.7119 17.2987 17.4686C17.2987 18.2254 17.2987 18.831 17.2987 18.831H8.57129V5.68018H15.9243Z"/><path fill="#F7FCFF" d="M11.8192 9.9231H11.3848V11.6923H11.8192V9.9231ZM13.1006 9.9231H12.6662V11.6923H13.1006V9.9231ZM12.0255 9.9231H12.4599V11.6923H12.0255V9.9231ZM13.7413 9.9231H13.3069V11.6923H13.7413V9.9231ZM13.9477 9.9231H14.3821V11.6923H13.9477V9.9231ZM15.0228 9.9231H14.5884V11.6923H15.0228V9.9231ZM11.3848 12.4616H11.8192V14.2308H11.3848V12.4616ZM13.1006 12.4616H12.6662V14.2308H13.1006V12.4616ZM12.0255 12.4616H12.4599V14.2308H12.0255V12.4616ZM13.7413 12.4616H13.3069V14.2308H13.7413V12.4616ZM13.9477 12.4616H14.3821V14.2308H13.9477V12.4616ZM15.0228 12.4616H14.5884V14.2308H15.0228V12.4616Z"/><path fill="#272727" d="M16.9774 9.9231H16.543V11.6923H16.9774V9.9231ZM18.2588 9.9231H17.8244V11.6923H18.2588V9.9231ZM17.1837 9.9231H17.6181V11.6923H17.1837V9.9231ZM18.8995 9.9231H18.4651V11.6923H18.8995V9.9231ZM19.1059 9.9231H19.5403V11.6923H19.1059V9.9231ZM20.181 9.9231H19.7466V11.6923H20.181V9.9231ZM16.543 12.4616H16.9774V14.2308H16.543V12.4616ZM18.2588 12.4616H17.8244V14.2308H18.2588V12.4616ZM17.1837 12.4616H17.6181V14.2308H17.1837V12.4616ZM18.8995 12.4616H18.4651V14.2308H18.8995V12.4616ZM19.1059 12.4616H19.5403V14.2308H19.1059V12.4616ZM20.181 12.4616H19.7466V14.2308H20.181V12.4616Z"/><path fill="#3D58DB" d="M13.2316 7.07169C12.6231 7.26022 12.3447 8.85603 12.4127 9.24176C12.4807 9.62749 12.6872 9.19336 12.6872 9.19336C12.6872 9.19336 13.1082 10.1085 13.1516 10.3547C13.195 10.6009 13.4168 9.98251 13.4168 9.98251C13.4168 9.98251 14.1471 10.4856 14.2459 11.0462C14.3448 11.6069 14.4935 10.4047 14.4935 10.4047L14.6589 10.3755L14.5542 9.78194L14.8697 10.0517L14.7724 9.49968C14.7724 9.49968 15.01 9.8102 14.9497 9.46841C14.8895 9.12663 14.8558 8.93582 14.8558 8.93582L14.7735 8.46866L15.0857 8.4136C15.0857 8.4136 13.8401 6.88317 13.2316 7.07169Z"/></g><path fill="#3D58DB" fill-rule="evenodd" d="M26.0884 13.6959C25.4564 13.7759 24.905 15.2991 24.905 15.6908 24.905 16.0825 25.1837 15.6908 25.1837 15.6908 25.1837 15.6908 25.4395 16.6651 25.4395 16.9151 25.4395 17.1651 25.7652 16.5947 25.7652 16.5947 25.7652 16.5947 26.3971 17.217 26.3971 17.7862 26.3971 18.3555 26.7522 17.1974 26.7522 17.1974H26.9202V16.5947L27.1841 16.9151V16.3546C27.1841 16.3546 27.3642 16.7016 27.3642 16.3546 27.3642 16.0075 27.3642 15.8138 27.3642 15.8138V15.3394H27.6813C27.6813 15.3394 26.7204 13.6159 26.0884 13.6959zM5.59279 13.4652C6.22479 13.5452 6.77612 15.0684 6.77612 15.4601 6.77612 15.8518 6.49742 15.4601 6.49742 15.4601 6.49742 15.4601 6.24167 16.4344 6.24167 16.6844 6.24167 16.9344 5.91593 16.364 5.91593 16.364 5.91593 16.364 5.28408 16.9863 5.28408 17.5555 5.28408 18.1248 4.92891 16.9667 4.92891 16.9667H4.76092V16.364L4.49706 16.6844V16.1239C4.49706 16.1239 4.31699 16.4709 4.31699 16.1239 4.31699 15.7768 4.31699 15.5831 4.31699 15.5831V15.1087H3.99989C3.99989 15.1087 4.9608 13.3852 5.59279 13.4652z" clip-rule="evenodd"/></g></svg>

<svg xmlns="http://www.w3.org/2000/svg" fill="none" viewBox="0 0 32 24"><mask id="SZ_svg__a" width="32" height="24" x="0" y="0" maskUnits="userSpaceOnUse"><path fill="#fff" d="M0 0h32v24H0z"/></mask><g mask="url(#SZ_svg__a)"><path fill="#3D58DB" fill-rule="evenodd" d="M0 0h32v24H0V0z" clip-rule="evenodd"/><path fill="#C51918" stroke="#FFD018" stroke-width="2" d="M0 5h-1v14h34V5H0z"/><path fill="#FFD018" d="M7.15 9.331c-.12 0-.218-.271-.218-.606 0-.334.097-.605.217-.605H24.56c.12 0 .217.27.217.605 0 .335-.097.606-.217.606H7.15z"/><path fill="#F7FCFF" fill-rule="evenodd" d="M24.095 8.602l1.011-1.29 1.79 1.29-1.79 1.324-1.01-1.324z" clip-rule="evenodd"/><path fill="#FFD018" d="M7.15 13.331c-.12 0-.218-.271-.218-.606 0-.334.097-.605.217-.605H24.56c.12 0 .217.27.217.605 0 .335-.097.606-.217.606H7.15z"/><path fill="#F7FCFF" fill-rule="evenodd" d="M24.095 12.602l1.011-1.29 1.79 1.29-1.79 1.324-1.01-1.324z" clip-rule="evenodd"/><path fill="#FFD018" d="M4.346 15.822c-.161 0-.292-.308-.292-.688 0-.38.13-.688.292-.688H27.69c.16 0 .29.308.29.688 0 .38-.13.688-.29.688H4.346z"/><path fill="#F7FCFF" fill-rule="evenodd" d="M8.817 12.053s2.842-5.98 6.906-5.98c4.063 0 7 5.98 7 5.98s-3.586 5.901-6.953 5.901c-3.367 0-6.953-5.901-6.953-5.901z" clip-rule="evenodd"/><mask id="SZ_svg__b" width="15" height="12" x="8" y="6" maskUnits="userSpaceOnUse"><path fill="#fff" fill-rule="evenodd" d="M8.817 12.053s2.842-5.98 6.906-5.98c4.063 0 7 5.98 7 5.98s-3.586 5.901-6.953 5.901c-3.367 0-6.953-5.901-6.953-5.901z" clip-rule="evenodd"/></mask><g fill-rule="evenodd" clip-rule="evenodd" mask="url(#SZ_svg__b)"><path fill="#272727" d="M15.924 5.68s-.927 1.126-.618 2.2c.31 1.074 1.03.96 1.03 1.906s-.333 1.91 0 1.91c.332 0 .447.653.143 1.096-.304.442-.573.456-.555 1.176.018.72 1.592 1.427.83 1.427-.763 0-1.768.74-1.448.74.32 0 1.993.577 1.993 1.334v1.362H8.57V5.681h7.353z"/><path fill="#F7FCFF" d="M11.819 9.923h-.434v1.77h.434v-1.77zm1.281 0h-.434v1.77h.434v-1.77zm-1.075 0h.435v1.77h-.435v-1.77zm1.716 0h-.434v1.77h.434v-1.77zm.207 0h.434v1.77h-.434v-1.77zm1.075 0h-.435v1.77h.435v-1.77zm-3.638 2.538h.434v1.77h-.434v-1.77zm1.716 0h-.435v1.77h.434v-1.77zm-1.076 0h.435v1.77h-.435v-1.77zm1.716 0h-.434v1.77h.434v-1.77zm.207 0h.434v1.77h-.434v-1.77zm1.075 0h-.435v1.77h.435v-1.77z"/><path fill="#272727" d="M16.977 9.923h-.434v1.77h.434v-1.77zm1.282 0h-.434v1.77h.434v-1.77zm-1.075 0h.434v1.77h-.434v-1.77zm1.716 0h-.435v1.77h.435v-1.77zm.206 0h.434v1.77h-.434v-1.77zm1.075 0h-.434v1.77h.434v-1.77zm-3.638 2.538h.434v1.77h-.434v-1.77zm1.716 0h-.434v1.77h.434v-1.77zm-1.075 0h.434v1.77h-.434v-1.77zm1.716 0h-.435v1.77h.435v-1.77zm.206 0h.434v1.77h-.434v-1.77zm1.075 0h-.434v1.77h.434v-1.77z"/><path fill="#3D58DB" d="M13.232 7.072c-.609.188-.887 1.784-.82 2.17.069.385.275-.049.275-.049s.421.915.465 1.162c.043.246.265-.373.265-.373s.73.504.829 1.064c.099.56.247-.641.247-.641l.166-.03-.105-.593.316.27-.098-.552s.238.31.178-.032l-.094-.532-.082-.467.312-.056s-1.246-1.53-1.854-1.341z"/></g><path fill="#3D58DB" fill-rule="evenodd" d="M26.088 13.696c-.632.08-1.183 1.603-1.183 1.995 0 .391.279 0 .279 0s.255.974.255 1.224.326-.32.326-.32.632.622.632 1.191c0 .57.355-.589.355-.589h.168v-.602l.264.32v-.56s.18.346.18 0v-1.016h.317s-.96-1.723-1.593-1.643zm-20.495-.231c.632.08 1.183 1.603 1.183 1.995 0 .392-.278 0-.278 0s-.256.974-.256 1.224-.326-.32-.326-.32-.632.622-.632 1.191c0 .57-.355-.588-.355-.588h-.168v-.603l-.264.32v-.56s-.18.347-.18 0v-1.016H4s.96-1.723 1.593-1.643z" clip-rule="evenodd"/></g></svg>
